;FLAVOR:Marlin
;TIME:7591
;Filament used: 5.54914m
;Layer height: 0.16
;MINX:105.215
;MINY:97.725
;MINZ:0.2
;MAXX:194.784
;MAXY:202.275
;MAXZ:3.8
;Generated with Cura_SteamEngine 5.3.1
M140 S70
M105
M190 S70
M104 S210
M105
M109 S210
M82 ;absolute extrusion mode
M201 X500.00 Y500.00 Z100.00 E5000.00 ;Setup machine max acceleration
M203 X500.00 Y500.00 Z10.00 E50.00 ;Setup machine max feedrate
M204 P500.00 R1000.00 T500.00 ;Setup Print/Retract/Travel acceleration
M205 X8.00 Y8.00 Z0.40 E5.00 ;Setup Jerk
M220 S100 ;Reset Feedrate
M221 S100 ;Reset Flowrate

G28 ;Home
G29 ;Bed Leveling

G92 E0 ;Reset Extruder
G1 Z2.0 F3000 ;Move Z Axis up
G1 X10.1 Y20 Z0.28 F5000.0 ;Move to start position
G1 X10.1 Y200.0 Z0.28 F1500.0 E15 ;Draw the first line
G1 X10.4 Y200.0 Z0.28 F5000.0 ;Move to side a little
G1 X10.4 Y20 Z0.28 F1500.0 E30 ;Draw the second line
G92 E0 ;Reset Extruder
G1 Z2.0 F3000 ;Move Z Axis up
G92 E0
G92 E0
G1 F2700 E-5
;LAYER_COUNT:21
;LAYER:0
M107
G0 F6000 X107.887 Y101.945 Z0.2
;TYPE:SKIRT
G1 F2700 E0
G1 F1200 X109.384 Y100.448 E0.07041
G1 X111.067 Y99.263 E0.13887
G1 X112.969 Y98.364 E0.20885
G1 X114.97 Y97.888 E0.27726
G1 X116.445 Y97.725 E0.32661
G1 X183.893 Y97.751 E2.56994
G1 X185.21 Y97.92 E2.61411
G1 X187.026 Y98.365 E2.67629
G1 X188.942 Y99.269 E2.74676
G1 X190.616 Y100.448 E2.81486
G1 X192.113 Y101.945 E2.88527
G1 X193.32 Y103.772 E2.9581
G1 X194.088 Y105.369 E3.01704
G1 X194.653 Y107.439 E3.08841
G1 X194.784 Y108.955 E3.13902
G1 X194.761 Y191.193 E5.87427
G1 X194.63 Y192.665 E5.92342
G1 X194.089 Y194.639 E5.99149
G1 X193.113 Y196.573 E6.06355
G1 X192.113 Y198.055 E6.12301
G1 X190.616 Y199.552 E6.19342
G1 X188.938 Y200.734 E6.26169
G1 X187.029 Y201.636 E6.33192
G1 X185.03 Y202.112 E6.40026
G1 X183.555 Y202.275 E6.44962
G1 X116.107 Y202.249 E8.69295
G1 X114.79 Y202.08 E8.73711
G1 X112.974 Y201.635 E8.7993
G1 X111.058 Y200.731 E8.86976
G1 X109.384 Y199.552 E8.93786
G1 X107.887 Y198.055 E9.00828
G1 X106.887 Y196.573 E9.06774
G1 X105.917 Y194.652 E9.13932
G1 X105.348 Y192.56 E9.21142
G1 X105.215 Y191.014 E9.26303
G1 X105.239 Y108.807 E11.99725
G1 X105.37 Y107.335 E12.0464
G1 X105.911 Y105.361 E12.11448
G1 X106.887 Y103.427 E12.18653
G1 X107.887 Y101.945 E12.24599
G0 F6000 X108.198 Y102.2
G1 F1200 X109.644 Y100.754 E12.31401
G1 X111.266 Y99.612 E12.37999
G1 X113.104 Y98.743 E12.44761
G1 X115.014 Y98.286 E12.51293
G1 X116.489 Y98.123 E12.56229
G1 X183.842 Y98.148 E14.80246
G1 X185.159 Y98.317 E14.84662
G1 X186.888 Y98.742 E14.90584
G1 X188.743 Y99.618 E14.97407
G1 X190.356 Y100.754 E15.03969
G1 X191.8 Y102.198 E15.10761
G1 X192.986 Y103.993 E15.17916
G1 X193.712 Y105.511 E15.23513
G1 X194.257 Y107.507 E15.30395
G1 X194.385 Y108.989 E15.35342
G1 X194.363 Y191.157 E18.08634
G1 X194.235 Y192.59 E18.13419
G1 X193.713 Y194.497 E18.19995
G1 X192.781 Y196.349 E18.26891
G1 X191.802 Y197.8 E18.32713
G1 X190.356 Y199.246 E18.39515
G1 X188.739 Y200.385 E18.46093
G1 X186.894 Y201.257 E18.5288
G1 X184.986 Y201.714 E18.59406
G1 X183.511 Y201.877 E18.64342
G1 X116.158 Y201.852 E20.88359
G1 X114.841 Y201.683 E20.92775
G1 X113.112 Y201.258 E20.98697
G1 X111.257 Y200.382 E21.0552
G1 X109.644 Y199.246 E21.12082
G1 X108.198 Y197.8 E21.18883
G1 X107.219 Y196.349 E21.24705
G1 X106.293 Y194.509 E21.31556
G1 X105.743 Y192.487 E21.38526
G1 X105.615 Y191.014 E21.43443
G1 X105.637 Y108.843 E24.16745
G1 X105.765 Y107.41 E24.2153
G1 X106.287 Y105.503 E24.28106
G1 X107.219 Y103.651 E24.35002
G1 X108.198 Y102.2 E24.40824
G0 F6000 X108.509 Y102.455
G1 F1200 X109.904 Y101.06 E24.47386
G1 X111.465 Y99.961 E24.53735
G1 X113.238 Y99.122 E24.60259
G1 X115.058 Y98.684 E24.66485
G1 X116.533 Y98.521 E24.71421
G1 X183.791 Y98.545 E26.95122
G1 X185.108 Y98.714 E26.99538
G1 X186.75 Y99.12 E27.05164
G1 X188.544 Y99.967 E27.11763
G1 X190.096 Y101.06 E27.18076
G1 X191.487 Y102.451 E27.24619
G1 X192.652 Y104.214 E27.31648
G1 X193.335 Y105.65 E27.36936
G1 X193.861 Y107.575 E27.43574
G1 X193.986 Y109.023 E27.48408
G1 X193.965 Y191.122 E30.2147
G1 X193.841 Y192.515 E30.26122
G1 X193.337 Y194.353 E30.3246
G1 X192.449 Y196.125 E30.39053
G1 X191.491 Y197.545 E30.4475
G1 X190.096 Y198.94 E30.51312
G1 X188.54 Y200.036 E30.57642
G1 X186.76 Y200.878 E30.64191
G1 X184.942 Y201.316 E30.70411
G1 X183.467 Y201.479 E30.75347
G1 X116.209 Y201.455 E32.99048
G1 X114.892 Y201.286 E33.03464
G1 X113.25 Y200.88 E33.0909
G1 X111.456 Y200.033 E33.15688
G1 X109.904 Y198.94 E33.22002
G1 X108.509 Y197.545 E33.28563
G1 X107.551 Y196.125 E33.34261
G1 X106.668 Y194.364 E33.40813
G1 X106.139 Y192.419 E33.47517
G1 X106.014 Y190.979 E33.52324
G1 X106.035 Y108.878 E36.25393
G1 X106.159 Y107.485 E36.30045
G1 X106.663 Y105.647 E36.36384
G1 X107.551 Y103.875 E36.42976
G1 X108.509 Y102.455 E36.48673
G0 F6000 X108.82 Y102.71
G1 F1200 X110.164 Y101.366 E36.54995
G1 X111.664 Y100.31 E36.61096
G1 X113.373 Y99.501 E36.67385
G1 X115.102 Y99.082 E36.73302
G1 X116.577 Y98.919 E36.78238
G1 X183.74 Y98.942 E39.01623
G1 X185.057 Y99.111 E39.0604
G1 X186.613 Y99.498 E39.11372
G1 X188.345 Y100.316 E39.17743
G1 X189.836 Y101.366 E39.23809
G1 X191.174 Y102.704 E39.30102
G1 X192.318 Y104.435 E39.37003
G1 X192.959 Y105.792 E39.41995
G1 X193.465 Y107.643 E39.48377
G1 X193.587 Y109.057 E39.53098
G1 X193.567 Y191.086 E42.25927
G1 X193.446 Y192.44 E42.30449
G1 X192.961 Y194.209 E42.36549
G1 X192.117 Y195.901 E42.42838
G1 X191.18 Y197.29 E42.48411
G1 X189.836 Y198.634 E42.54733
G1 X188.341 Y199.687 E42.60815
G1 X186.625 Y200.499 E42.67129
G1 X184.898 Y200.918 E42.7304
G1 X183.423 Y201.081 E42.77975
G1 X116.26 Y201.058 E45.0136
G1 X114.943 Y200.889 E45.05777
G1 X113.387 Y200.502 E45.1111
G1 X111.655 Y199.684 E45.1748
G1 X110.164 Y198.634 E45.23546
G1 X108.82 Y197.29 E45.29868
G1 X107.883 Y195.901 E45.3544
G1 X107.043 Y194.219 E45.41694
G1 X106.535 Y192.351 E45.48132
G1 X106.413 Y190.944 E45.52829
G1 X106.433 Y108.914 E48.25662
G1 X106.554 Y107.56 E48.30184
G1 X107.039 Y105.791 E48.36285
G1 X107.883 Y104.099 E48.42573
G1 X108.82 Y102.71 E48.48146
G0 F6000 X109.131 Y102.965
G1 F1200 X110.424 Y101.672 E48.54228
G1 X111.863 Y100.659 E48.60081
G1 X113.507 Y99.881 E48.6613
G1 X115.146 Y99.48 E48.71743
G1 X116.621 Y99.317 E48.76678
G1 X183.689 Y99.339 E50.99747
G1 X185.006 Y99.508 E51.04164
G1 X186.476 Y99.876 E51.09204
G1 X188.146 Y100.665 E51.15347
G1 X189.576 Y101.672 E51.21164
G1 X190.864 Y102.96 E51.27222
G1 X191.956 Y104.606 E51.33792
G1 X192.582 Y105.932 E51.38669
G1 X193.069 Y107.713 E51.4481
G1 X193.188 Y109.091 E51.49411
G1 X193.169 Y191.051 E54.22011
G1 X193.052 Y192.365 E54.26399
G1 X192.585 Y194.068 E54.32272
G1 X191.785 Y195.677 E54.38248
G1 X190.869 Y197.035 E54.43697
G1 X189.576 Y198.328 E54.49778
G1 X188.142 Y199.338 E54.55612
G1 X186.491 Y200.119 E54.61687
G1 X184.854 Y200.52 E54.67293
G1 X183.379 Y200.683 E54.72228
G1 X116.311 Y200.661 E56.95297
G1 X114.994 Y200.492 E56.99714
G1 X113.524 Y200.124 E57.04754
G1 X111.854 Y199.335 E57.10897
G1 X110.424 Y198.328 E57.16714
G1 X109.131 Y197.035 E57.22796
G1 X108.215 Y195.677 E57.28244
G1 X107.419 Y194.077 E57.34188
G1 X106.931 Y192.283 E57.40372
G1 X106.812 Y190.909 E57.44959
G1 X106.831 Y108.949 E60.17559
G1 X106.948 Y107.635 E60.21946
G1 X107.415 Y105.932 E60.2782
G1 X108.215 Y104.323 E60.33796
G1 X109.131 Y102.965 E60.39244
G0 F6000 X109.442 Y103.22
G1 F1200 X110.684 Y101.978 E60.45086
G1 X112.062 Y101.008 E60.50691
G1 X113.645 Y100.259 E60.56516
G1 X115.19 Y99.878 E60.61809
G1 X116.665 Y99.715 E60.66744
G1 X183.638 Y99.736 E62.89498
G1 X184.955 Y99.905 E62.93914
G1 X186.34 Y100.254 E62.98664
G1 X187.947 Y101.014 E63.04577
G1 X189.316 Y101.978 E63.10146
G1 X190.553 Y103.215 E63.15964
G1 X191.594 Y104.777 E63.22207
G1 X192.206 Y106.073 E63.26974
G1 X192.673 Y107.781 E63.32864
G1 X192.789 Y109.125 E63.37351
G1 X192.771 Y191.015 E66.09718
G1 X192.657 Y192.29 E66.13975
G1 X192.209 Y193.925 E66.19614
G1 X191.453 Y195.453 E66.25284
G1 X190.558 Y196.78 E66.30608
G1 X189.316 Y198.022 E66.3645
G1 X187.943 Y198.989 E66.42035
G1 X186.353 Y199.741 E66.47885
G1 X184.81 Y200.122 E66.53171
G1 X183.335 Y200.285 E66.58107
G1 X116.362 Y200.264 E68.8086
G1 X115.045 Y200.095 E68.85277
G1 X113.66 Y199.746 E68.90027
G1 X112.053 Y198.986 E68.9594
G1 X110.684 Y198.022 E69.01508
G1 X109.442 Y196.78 E69.0735
G1 X108.547 Y195.453 E69.12674
G1 X107.795 Y193.935 E69.18309
G1 X107.327 Y192.215 E69.24237
G1 X107.211 Y190.875 E69.28711
G1 X107.229 Y108.985 E72.01078
G1 X107.343 Y107.71 E72.05336
G1 X107.791 Y106.075 E72.10974
G1 X108.547 Y104.547 E72.16644
G1 X109.442 Y103.22 E72.21968
G0 F6000 X109.753 Y103.475
G1 F1200 X110.944 Y102.284 E72.2757
G1 X112.261 Y101.357 E72.32927
G1 X113.782 Y100.637 E72.38524
G1 X115.234 Y100.276 E72.435
G1 X116.709 Y100.113 E72.48436
G1 X183.587 Y100.133 E74.70873
G1 X184.904 Y100.302 E74.75289
G1 X186.203 Y100.632 E74.79747
G1 X187.748 Y101.363 E74.85432
G1 X189.056 Y102.284 E74.90753
G1 X190.243 Y103.471 E74.96336
G1 X191.232 Y104.948 E75.02248
G1 X191.83 Y106.214 E75.06905
G1 X192.277 Y107.849 E75.12542
G1 X192.39 Y109.159 E75.16916
G1 X192.373 Y190.98 E77.89053
G1 X192.263 Y192.215 E77.93177
G1 X191.833 Y193.782 E77.98582
G1 X191.121 Y195.229 E78.03946
G1 X190.247 Y196.525 E78.09145
G1 X189.056 Y197.716 E78.14747
G1 X187.744 Y198.64 E78.20084
G1 X186.216 Y199.363 E78.25707
G1 X184.766 Y199.724 E78.30676
G1 X183.291 Y199.887 E78.35612
G1 X116.413 Y199.867 E80.58049
G1 X115.096 Y199.698 E80.62466
G1 X113.797 Y199.368 E80.66923
G1 X112.252 Y198.637 E80.72608
G1 X110.944 Y197.716 E80.77929
G1 X109.753 Y196.525 E80.83531
G1 X108.879 Y195.229 E80.8873
G1 X108.17 Y193.791 E80.94063
G1 X107.723 Y192.147 E80.99729
G1 X107.61 Y190.841 E81.04089
G1 X107.627 Y109.02 E83.76227
G1 X107.737 Y107.785 E83.80351
G1 X108.167 Y106.218 E83.85755
G1 X108.879 Y104.771 E83.91119
G1 X109.753 Y103.475 E83.96318
G0 F6000 X110.064 Y103.73
G1 F1200 X111.204 Y102.59 E84.0168
G1 X112.46 Y101.706 E84.06789
G1 X113.918 Y101.016 E84.12154
G1 X115.278 Y100.674 E84.16818
G1 X116.753 Y100.511 E84.21754
G1 X183.537 Y100.53 E86.43878
G1 X184.805 Y100.69 E86.48129
G1 X186.067 Y101.011 E86.5246
G1 X187.549 Y101.712 E86.57913
G1 X188.796 Y102.59 E86.62985
G1 X189.933 Y103.727 E86.68334
G1 X190.87 Y105.119 E86.73915
G1 X191.454 Y106.355 E86.78461
G1 X191.881 Y107.917 E86.83847
G1 X191.991 Y109.193 E86.88107
G1 X191.975 Y190.944 E89.60012
G1 X191.868 Y192.14 E89.64006
G1 X191.456 Y193.642 E89.69186
G1 X190.789 Y195.005 E89.74233
G1 X189.936 Y196.27 E89.79307
G1 X188.796 Y197.41 E89.8467
G1 X187.545 Y198.291 E89.89759
G1 X186.079 Y198.985 E89.95153
G1 X184.722 Y199.326 E89.99807
G1 X183.247 Y199.489 E90.04743
G1 X116.463 Y199.47 E92.26867
G1 X115.195 Y199.31 E92.31118
G1 X113.933 Y198.989 E92.35449
G1 X112.451 Y198.288 E92.40902
G1 X111.204 Y197.41 E92.45975
G1 X110.064 Y196.27 E92.51337
G1 X109.211 Y195.005 E92.56411
G1 X108.546 Y193.65 E92.61432
G1 X108.119 Y192.079 E92.66846
G1 X108.009 Y190.807 E92.71093
G1 X108.025 Y109.056 E95.42998
G1 X108.132 Y107.86 E95.46991
G1 X108.544 Y106.358 E95.52172
G1 X109.211 Y104.995 E95.57219
G1 X110.064 Y103.73 E95.62293
G0 F6000 X110.375 Y103.985
G1 F1200 X111.464 Y102.896 E95.67416
G1 X112.659 Y102.055 E95.72276
G1 X114.053 Y101.395 E95.77406
G1 X115.322 Y101.072 E95.81761
G1 X116.797 Y100.909 E95.86697
G1 X183.488 Y100.927 E98.08512
G1 X184.707 Y101.078 E98.12597
G1 X185.935 Y101.39 E98.16811
G1 X187.345 Y102.058 E98.22001
G1 X188.536 Y102.896 E98.26844
G1 X189.625 Y103.985 E98.31967
G1 X190.508 Y105.29 E98.37207
G1 X191.078 Y106.496 E98.41644
G1 X191.485 Y107.985 E98.46778
G1 X191.592 Y109.227 E98.50924
G1 X191.577 Y190.909 E101.226
G1 X191.474 Y192.065 E101.2646
G1 X191.08 Y193.5 E101.31409
G1 X190.457 Y194.781 E101.36147
G1 X189.625 Y196.015 E101.41097
G1 X188.536 Y197.104 E101.46219
G1 X187.346 Y197.942 E101.5106
G1 X185.944 Y198.606 E101.5622
G1 X184.678 Y198.928 E101.60565
G1 X183.203 Y199.091 E101.655
G1 X116.512 Y199.073 E103.87316
G1 X115.293 Y198.922 E103.91401
G1 X114.065 Y198.61 E103.95615
G1 X112.655 Y197.942 E104.00804
G1 X111.464 Y197.104 E104.05648
G1 X110.375 Y196.015 E104.1077
G1 X109.543 Y194.781 E104.1572
G1 X108.922 Y193.507 E104.20434
G1 X108.515 Y192.011 E104.25591
G1 X108.408 Y190.773 E104.29724
G1 X108.423 Y109.091 E107.01399
G1 X108.526 Y107.935 E107.05259
G1 X108.92 Y106.5 E107.10209
G1 X109.543 Y105.219 E107.14947
G1 X110.375 Y103.985 E107.19897
G0 F6000 X110.685 Y104.241
G1 F1200 X111.724 Y103.202 E107.24784
G1 X112.858 Y102.404 E107.29396
G1 X114.189 Y101.774 E107.34294
G1 X115.421 Y101.46 E107.38522
G1 X116.84 Y101.307 E107.43269
G1 X183.44 Y101.324 E109.64782
G1 X184.608 Y101.466 E109.68695
G1 X185.799 Y101.769 E109.72783
G1 X187.146 Y102.407 E109.7774
G1 X188.276 Y103.202 E109.82335
G1 X189.315 Y104.241 E109.87222
G1 X190.146 Y105.461 E109.92132
G1 X190.701 Y106.636 E109.96454
G1 X191.089 Y108.055 E110.01347
G1 X191.193 Y109.261 E110.05373
G1 X191.179 Y190.874 E112.76819
G1 X191.08 Y191.99 E112.80545
G1 X190.704 Y193.358 E112.85264
G1 X190.097 Y194.606 E112.8988
G1 X189.315 Y195.759 E112.94514
G1 X188.276 Y196.798 E112.99401
G1 X187.147 Y197.593 E113.03993
G1 X185.808 Y198.227 E113.08921
G1 X184.579 Y198.54 E113.13139
G1 X183.16 Y198.693 E113.17886
G1 X116.56 Y198.676 E115.39398
G1 X115.392 Y198.534 E115.43312
G1 X114.201 Y198.231 E115.47399
G1 X112.854 Y197.593 E115.52357
G1 X111.724 Y196.798 E115.56952
G1 X110.685 Y195.759 E115.61839
G1 X109.903 Y194.606 E115.66473
G1 X109.298 Y193.364 E115.71068
G1 X108.911 Y191.943 E115.75966
G1 X108.807 Y190.739 E115.79986
G1 X108.821 Y109.126 E118.51432
G1 X108.92 Y108.01 E118.55158
G1 X109.296 Y106.642 E118.59877
G1 X109.903 Y105.394 E118.64492
G1 X110.685 Y104.241 E118.69126
G0 F6000 X110.992 Y104.5
G1 F1200 X111.984 Y103.508 E118.73792
G1 X113.057 Y102.753 E118.78156
G1 X114.325 Y102.153 E118.82822
G1 X115.52 Y101.848 E118.86924
G1 X116.882 Y101.705 E118.91479
G1 X183.393 Y101.721 E121.12695
G1 X184.509 Y101.854 E121.16433
G1 X185.663 Y102.148 E121.20394
G1 X186.947 Y102.756 E121.25119
G1 X188.016 Y103.508 E121.29466
G1 X189.006 Y104.498 E121.34123
G1 X189.784 Y105.632 E121.38697
G1 X190.325 Y106.777 E121.42909
G1 X190.693 Y108.123 E121.4755
G1 X190.794 Y109.295 E121.51463
G1 X190.781 Y190.838 E124.22676
G1 X190.685 Y191.915 E124.26272
G1 X190.328 Y193.216 E124.30759
G1 X189.737 Y194.431 E124.35253
G1 X189.008 Y195.5 E124.39557
G1 X188.016 Y196.492 E124.44223
G1 X186.948 Y197.244 E124.48567
G1 X185.672 Y197.848 E124.53262
G1 X184.48 Y198.152 E124.57354
G1 X183.118 Y198.295 E124.61909
G1 X116.607 Y198.279 E126.83125
G1 X115.491 Y198.146 E126.86863
G1 X114.337 Y197.852 E126.90824
G1 X113.053 Y197.244 E126.9555
G1 X111.984 Y196.492 E126.99897
G1 X110.992 Y195.5 E127.04563
G1 X110.263 Y194.431 E127.08866
G1 X109.674 Y193.221 E127.13342
G1 X109.307 Y191.875 E127.17982
G1 X109.206 Y190.705 E127.21888
G1 X109.219 Y109.162 E129.93101
G1 X109.315 Y108.085 E129.96698
G1 X109.672 Y106.784 E130.01185
G1 X110.263 Y105.569 E130.05679
G1 X110.992 Y104.5 E130.09982
G0 F6000 X111.301 Y104.757
G1 F1200 X112.244 Y103.814 E130.14418
G1 X113.256 Y103.102 E130.18533
G1 X114.464 Y102.53 E130.22979
G1 X115.562 Y102.246 E130.26751
G1 X116.924 Y102.103 E130.31306
G1 X183.347 Y102.118 E132.5223
G1 X184.41 Y102.242 E132.55789
G1 X185.532 Y102.528 E132.5964
G1 X186.743 Y103.102 E132.64098
G1 X187.756 Y103.814 E132.68216
G1 X188.699 Y104.757 E132.72652
G1 X189.422 Y105.803 E132.76881
G1 X189.949 Y106.918 E132.80983
G1 X190.297 Y108.191 E132.85372
G1 X190.395 Y109.329 E132.89171
G1 X190.383 Y190.803 E135.60155
G1 X190.291 Y191.84 E135.63617
G1 X189.952 Y193.074 E135.67874
G1 X189.377 Y194.256 E135.72245
G1 X188.699 Y195.243 E135.76228
G1 X187.756 Y196.186 E135.80664
G1 X186.744 Y196.898 E135.84779
G1 X185.537 Y197.47 E135.89222
G1 X184.438 Y197.754 E135.92997
G1 X183.076 Y197.897 E135.97552
G1 X116.653 Y197.882 E138.18476
G1 X115.59 Y197.758 E138.22035
G1 X114.468 Y197.472 E138.25886
G1 X113.257 Y196.898 E138.30344
G1 X112.244 Y196.186 E138.34462
G1 X111.301 Y195.243 E138.38898
G1 X110.623 Y194.256 E138.4288
G1 X110.05 Y193.078 E138.47237
G1 X109.703 Y191.807 E138.51619
