;FLAVOR:Marlin
;TIME:16565
;Filament used: 11.8397m
;Layer height: 0.16
;MINX:105.215
;MINY:97.725
;MINZ:0.2
;MAXX:194.784
;MAXY:202.275
;MAXZ:19.92
;Generated with Cura_SteamEngine 5.3.1
M140 S70
M105
M190 S70
M104 S210
M105
M109 S210
M82 ;absolute extrusion mode
M201 X500.00 Y500.00 Z100.00 E5000.00 ;Setup machine max acceleration
M203 X500.00 Y500.00 Z10.00 E50.00 ;Setup machine max feedrate
M204 P500.00 R1000.00 T500.00 ;Setup Print/Retract/Travel acceleration
M205 X8.00 Y8.00 Z0.40 E5.00 ;Setup Jerk
M220 S100 ;Reset Feedrate
M221 S100 ;Reset Flowrate

G28 ;Home
G29 ;Bed Leveling

G92 E0 ;Reset Extruder
G1 Z2.0 F3000 ;Move Z Axis up
G1 X10.1 Y20 Z0.28 F5000.0 ;Move to start position
G1 X10.1 Y200.0 Z0.28 F1500.0 E15 ;Draw the first line
G1 X10.4 Y200.0 Z0.28 F5000.0 ;Move to side a little
G1 X10.4 Y20 Z0.28 F1500.0 E30 ;Draw the second line
G92 E0 ;Reset Extruder
G1 Z2.0 F3000 ;Move Z Axis up
G92 E0
G92 E0
G1 F2700 E-5
;LAYER_COUNT:103
;LAYER:0
M107
G0 F6000 X107.891 Y101.941 Z0.2
;TYPE:SKIRT
G1 F2700 E0
G1 F1200 X109.384 Y100.448 E0.07023
G1 X111.067 Y99.263 E0.13869
G1 X112.969 Y98.364 E0.20866
G1 X114.97 Y97.888 E0.27707
G1 X116.445 Y97.725 E0.32643
G1 X183.959 Y97.761 E2.57195
G1 X185.668 Y98.009 E2.62939
G1 X187.094 Y98.389 E2.67847
G1 X189.225 Y99.474 E2.75801
G1 X190.561 Y100.393 E2.81194
G1 X192.113 Y101.945 E2.88494
G1 X193.32 Y103.772 E2.95777
G1 X194.088 Y105.369 E3.01671
G1 X194.653 Y107.439 E3.08808
G1 X194.784 Y108.955 E3.13869
G1 X194.76 Y191.223 E5.87493
G1 X194.606 Y192.668 E5.92327
G1 X194.074 Y194.681 E5.99252
G1 X192.963 Y196.818 E6.07263
G1 X192.109 Y198.059 E6.12273
G1 X190.616 Y199.552 E6.19296
G1 X188.933 Y200.737 E6.26142
G1 X187.031 Y201.636 E6.33139
G1 X185.03 Y202.112 E6.3998
G1 X183.555 Y202.275 E6.44916
G1 X116.041 Y202.239 E8.69468
G1 X114.332 Y201.991 E8.75212
G1 X112.906 Y201.611 E8.8012
G1 X110.775 Y200.526 E8.88074
G1 X109.439 Y199.607 E8.93467
G1 X107.887 Y198.055 E9.00767
G1 X106.887 Y196.573 E9.06714
G1 X105.917 Y194.652 E9.13871
G1 X105.348 Y192.56 E9.21082
G1 X105.215 Y191.014 E9.26243
G1 X105.24 Y108.777 E11.99764
G1 X105.394 Y107.332 E12.04598
G1 X105.926 Y105.319 E12.11523
G1 X107.037 Y103.182 E12.19534
G1 X107.891 Y101.941 E12.24544
G0 F6000 X108.201 Y102.197
G1 F1200 X109.644 Y100.754 E12.31332
G1 X111.266 Y99.612 E12.37929
G1 X113.104 Y98.743 E12.44691
G1 X115.014 Y98.286 E12.51223
G1 X116.489 Y98.123 E12.56159
G1 X183.902 Y98.157 E14.80376
G1 X185.565 Y98.396 E14.85964
G1 X186.951 Y98.765 E14.90734
G1 X188.998 Y99.804 E14.98369
G1 X190.305 Y100.703 E15.03646
G1 X191.8 Y102.198 E15.10678
G1 X192.986 Y103.993 E15.17833
G1 X193.712 Y105.511 E15.2343
G1 X194.257 Y107.507 E15.30312
G1 X194.385 Y108.989 E15.35259
G1 X194.362 Y191.181 E18.08631
G1 X194.208 Y192.626 E18.13464
G1 X193.699 Y194.535 E18.20035
G1 X192.633 Y196.591 E18.27738
G1 X191.799 Y197.803 E18.32631
G1 X190.356 Y199.246 E18.39419
G1 X188.734 Y200.388 E18.46017
G1 X186.896 Y201.257 E18.52779
G1 X184.986 Y201.714 E18.59311
G1 X183.511 Y201.877 E18.64246
G1 X116.098 Y201.843 E20.88463
G1 X114.435 Y201.604 E20.94051
G1 X113.049 Y201.235 E20.98821
G1 X111.002 Y200.196 E21.06457
G1 X109.695 Y199.297 E21.11733
G1 X108.198 Y197.8 E21.18774
G1 X107.219 Y196.349 E21.24596
G1 X106.293 Y194.509 E21.31447
G1 X105.743 Y192.487 E21.38417
G1 X105.615 Y191.014 E21.43334
G1 X105.638 Y108.819 E24.16716
G1 X105.792 Y107.374 E24.21549
G1 X106.301 Y105.465 E24.2812
G1 X107.367 Y103.409 E24.35823
G1 X108.201 Y102.197 E24.40717
G0 F6000 X108.511 Y102.453
G1 F1200 X109.904 Y101.06 E24.47269
G1 X111.465 Y99.961 E24.53618
G1 X113.238 Y99.122 E24.60142
G1 X115.058 Y98.684 E24.66369
G1 X116.533 Y98.521 E24.71304
G1 X183.846 Y98.553 E26.95188
G1 X185.462 Y98.783 E27.00617
G1 X186.808 Y99.141 E27.0525
G1 X188.771 Y100.134 E27.12566
G1 X190.049 Y101.013 E27.17725
G1 X191.487 Y102.451 E27.24489
G1 X192.652 Y104.214 E27.31518
G1 X193.335 Y105.65 E27.36807
G1 X193.861 Y107.575 E27.43444
G1 X193.986 Y109.023 E27.48278
G1 X193.964 Y191.14 E30.214
G1 X193.821 Y192.523 E30.26025
G1 X193.323 Y194.392 E30.32458
G1 X192.303 Y196.364 E30.39842
G1 X191.489 Y197.547 E30.44618
G1 X190.096 Y198.94 E30.5117
G1 X188.535 Y200.039 E30.5752
G1 X186.762 Y200.878 E30.64044
G1 X184.942 Y201.316 E30.7027
G1 X183.467 Y201.479 E30.75206
G1 X116.154 Y201.447 E32.9909
G1 X114.538 Y201.217 E33.04519
G1 X113.192 Y200.859 E33.09151
G1 X111.229 Y199.866 E33.16468
G1 X109.951 Y198.987 E33.21627
G1 X108.509 Y197.545 E33.2841
G1 X107.551 Y196.125 E33.34107
G1 X106.668 Y194.364 E33.40659
G1 X106.139 Y192.419 E33.47363
G1 X106.014 Y190.979 E33.52171
G1 X106.036 Y108.86 E36.253
G1 X106.179 Y107.477 E36.29924
G1 X106.677 Y105.608 E36.36357
G1 X107.697 Y103.636 E36.43742
G1 X108.511 Y102.453 E36.48518
G0 F6000 X108.821 Y102.709
G1 F1200 X110.164 Y101.366 E36.54835
G1 X111.664 Y100.31 E36.60936
G1 X113.373 Y99.501 E36.67225
G1 X115.102 Y99.082 E36.73142
G1 X116.577 Y98.919 E36.78078
G1 X183.79 Y98.949 E39.01629
G1 X185.359 Y99.17 E39.06899
G1 X186.668 Y99.518 E39.11404
G1 X188.544 Y100.464 E39.18392
G1 X189.793 Y101.323 E39.23434
G1 X191.174 Y102.704 E39.2993
G1 X192.318 Y104.435 E39.36831
G1 X192.959 Y105.792 E39.41823
G1 X193.465 Y107.643 E39.48205
G1 X193.587 Y109.057 E39.52925
G1 X193.566 Y191.1 E42.25802
G1 X193.434 Y192.42 E42.30214
G1 X192.946 Y194.252 E42.3652
G1 X191.973 Y196.137 E42.43575
G1 X191.179 Y197.291 E42.48234
G1 X189.836 Y198.634 E42.54551
G1 X188.336 Y199.69 E42.60652
G1 X186.627 Y200.499 E42.66941
G1 X184.898 Y200.918 E42.72858
G1 X183.423 Y201.081 E42.77794
G1 X116.21 Y201.051 E45.01346
G1 X114.641 Y200.83 E45.06616
G1 X113.332 Y200.482 E45.11121
G1 X111.456 Y199.536 E45.18109
G1 X110.207 Y198.677 E45.2315
G1 X108.82 Y197.29 E45.29674
G1 X107.883 Y195.901 E45.35247
G1 X107.043 Y194.219 E45.415
G1 X106.535 Y192.351 E45.47939
G1 X106.413 Y190.944 E45.52636
G1 X106.434 Y108.9 E48.25516
G1 X106.566 Y107.58 E48.29928
G1 X107.054 Y105.748 E48.36234
G1 X108.027 Y103.863 E48.43289
G1 X108.821 Y102.709 E48.47948
G0 F6000 X109.131 Y102.965
G1 F1200 X110.424 Y101.672 E48.5403
G1 X111.863 Y100.659 E48.59883
G1 X113.507 Y99.881 E48.65932
G1 X115.146 Y99.48 E48.71545
G1 X116.621 Y99.317 E48.7648
G1 X183.735 Y99.345 E50.99702
G1 X185.256 Y99.557 E51.0481
G1 X186.528 Y99.895 E51.09188
G1 X188.317 Y100.794 E51.15847
G1 X189.537 Y101.633 E51.20772
G1 X190.864 Y102.96 E51.27013
G1 X191.956 Y104.606 E51.33583
G1 X192.582 Y105.932 E51.3846
G1 X193.069 Y107.713 E51.44601
G1 X193.188 Y109.091 E51.49202
G1 X193.168 Y191.062 E54.21838
G1 X193.047 Y192.317 E54.26032
G1 X192.57 Y194.108 E54.32196
G1 X191.643 Y195.91 E54.38936
G1 X190.869 Y197.035 E54.43478
G1 X189.576 Y198.328 E54.4956
G1 X188.137 Y199.341 E54.55413
G1 X186.493 Y200.119 E54.61463
G1 X184.854 Y200.52 E54.67075
G1 X183.379 Y200.683 E54.7201
G1 X116.265 Y200.655 E56.95233
G1 X114.744 Y200.443 E57.0034
G1 X113.472 Y200.105 E57.04718
G1 X111.683 Y199.206 E57.11377
G1 X110.463 Y198.367 E57.16302
G1 X109.131 Y197.035 E57.22567
G1 X108.215 Y195.677 E57.28015
G1 X107.419 Y194.077 E57.33959
G1 X106.931 Y192.283 E57.40143
G1 X106.812 Y190.909 E57.4473
G1 X106.832 Y108.938 E60.17366
G1 X106.953 Y107.683 E60.2156
G1 X107.43 Y105.892 E60.27724
G1 X108.357 Y104.09 E60.34465
G1 X109.131 Y102.965 E60.39006
G0 F6000 X109.441 Y103.221
G1 F1200 X110.684 Y101.978 E60.44853
G1 X112.062 Y101.008 E60.50458
G1 X113.645 Y100.259 E60.56283
G1 X115.19 Y99.878 E60.61575
G1 X116.665 Y99.715 E60.66511
G1 X183.68 Y99.741 E62.89404
G1 X185.153 Y99.944 E62.94349
G1 X186.386 Y100.272 E62.98593
G1 X188.09 Y101.124 E63.04929
G1 X189.281 Y101.943 E63.09737
G1 X190.553 Y103.215 E63.1572
G1 X191.594 Y104.777 E63.21963
G1 X192.206 Y106.073 E63.2673
G1 X192.673 Y107.781 E63.3262
G1 X192.789 Y109.125 E63.37106
G1 X192.77 Y191.025 E66.09507
G1 X192.66 Y192.214 E66.13478
G1 X192.193 Y193.966 E66.19509
G1 X191.313 Y195.683 E66.25926
G1 X190.559 Y196.779 E66.30351
G1 X189.316 Y198.022 E66.36197
G1 X187.938 Y198.992 E66.41802
G1 X186.355 Y199.741 E66.47627
G1 X184.81 Y200.122 E66.5292
G1 X183.335 Y200.285 E66.57855
G1 X116.32 Y200.259 E68.80748
G1 X114.847 Y200.056 E68.85694
G1 X113.614 Y199.728 E68.89937
G1 X111.91 Y198.876 E68.96274
G1 X110.719 Y198.057 E69.01081
G1 X109.442 Y196.78 E69.07088
G1 X108.547 Y195.453 E69.12412
G1 X107.795 Y193.935 E69.18046
G1 X107.327 Y192.215 E69.23975
G1 X107.211 Y190.875 E69.28448
G1 X107.23 Y108.975 E72.00849
G1 X107.34 Y107.786 E72.0482
G1 X107.807 Y106.034 E72.10851
G1 X108.687 Y104.317 E72.17268
G1 X109.441 Y103.221 E72.21693
G0 F6000 X109.751 Y103.477
G1 F1200 X110.944 Y102.284 E72.27304
G1 X112.261 Y101.357 E72.32661
G1 X113.782 Y100.637 E72.38258
G1 X115.234 Y100.276 E72.43234
G1 X116.709 Y100.113 E72.4817
G1 X183.626 Y100.137 E74.70737
G1 X185.05 Y100.331 E74.75517
G1 X186.247 Y100.649 E74.79636
G1 X187.863 Y101.454 E74.85641
G1 X189.025 Y102.253 E74.90331
G1 X190.243 Y103.471 E74.9606
G1 X191.232 Y104.948 E75.01973
G1 X191.83 Y106.214 E75.06629
G1 X192.277 Y107.849 E75.12267
G1 X192.39 Y109.159 E75.1664
G1 X192.372 Y190.988 E77.88805
G1 X192.265 Y192.145 E77.92669
G1 X191.818 Y193.82 E77.98435
G1 X190.983 Y195.456 E78.04544
G1 X190.249 Y196.523 E78.08852
G1 X189.056 Y197.716 E78.14463
G1 X187.739 Y198.643 E78.1982
G1 X186.218 Y199.363 E78.25417
G1 X184.766 Y199.724 E78.30394
G1 X183.291 Y199.887 E78.35329
G1 X116.374 Y199.863 E80.57896
G1 X114.95 Y199.669 E80.62676
G1 X113.753 Y199.351 E80.66795
G1 X112.137 Y198.546 E80.728
G1 X110.975 Y197.747 E80.77491
G1 X109.753 Y196.525 E80.83238
G1 X108.879 Y195.229 E80.88438
G1 X108.17 Y193.791 E80.9377
G1 X107.723 Y192.147 E80.99437
G1 X107.61 Y190.841 E81.03797
G1 X107.628 Y109.012 E83.75961
G1 X107.735 Y107.855 E83.79826
G1 X108.182 Y106.18 E83.85592
G1 X109.017 Y104.544 E83.91701
G1 X109.751 Y103.477 E83.96008
G0 F6000 X110.061 Y103.733
G1 F1200 X111.204 Y102.59 E84.01385
G1 X112.46 Y101.706 E84.06493
G1 X113.918 Y101.016 E84.11858
G1 X115.278 Y100.674 E84.16522
G1 X116.753 Y100.511 E84.21458
G1 X183.573 Y100.533 E86.43702
G1 X184.947 Y100.718 E86.48313
G1 X186.108 Y101.026 E86.52308
G1 X187.636 Y101.784 E86.57981
G1 X188.769 Y102.563 E86.62555
G1 X189.933 Y103.727 E86.6803
G1 X190.87 Y105.119 E86.73611
G1 X191.454 Y106.355 E86.78157
G1 X191.881 Y107.917 E86.83543
G1 X191.991 Y109.193 E86.87803
G1 X191.974 Y190.951 E89.59731
G1 X191.87 Y192.076 E89.63489
G1 X191.443 Y193.677 E89.69
G1 X190.653 Y195.229 E89.74792
G1 X189.939 Y196.267 E89.78983
G1 X188.796 Y197.41 E89.84359
G1 X187.54 Y198.294 E89.89467
G1 X186.082 Y198.984 E89.94832
G1 X184.722 Y199.326 E89.99497
G1 X183.247 Y199.489 E90.04432
G1 X116.427 Y199.467 E92.26677
G1 X115.053 Y199.282 E92.31288
G1 X113.892 Y198.974 E92.35283
G1 X112.364 Y198.216 E92.40956
G1 X111.231 Y197.437 E92.45529
G1 X110.064 Y196.27 E92.51018
G1 X109.211 Y195.005 E92.56093
G1 X108.546 Y193.65 E92.61113
G1 X108.119 Y192.079 E92.66528
G1 X108.009 Y190.807 E92.70774
G1 X108.026 Y109.049 E95.42702
G1 X108.13 Y107.924 E95.4646
G1 X108.557 Y106.323 E95.51971
G1 X109.347 Y104.771 E95.57764
G1 X110.061 Y103.733 E95.61954
G0 F6000 X110.371 Y103.989
G1 F1200 X111.464 Y102.896 E95.67095
G1 X112.659 Y102.055 E95.71955
G1 X114.053 Y101.395 E95.77085
G1 X115.322 Y101.072 E95.8144
G1 X116.797 Y100.909 E95.86376
G1 X183.521 Y100.93 E98.08301
G1 X184.844 Y101.105 E98.1274
G1 X185.967 Y101.403 E98.16604
G1 X187.409 Y102.114 E98.21951
G1 X188.513 Y102.873 E98.26407
G1 X189.625 Y103.985 E98.31638
G1 X190.508 Y105.29 E98.36879
G1 X191.078 Y106.496 E98.41315
G1 X191.485 Y107.985 E98.46449
G1 X191.592 Y109.227 E98.50596
G1 X191.576 Y190.916 E101.22294
G1 X191.483 Y191.973 E101.25823
G1 X191.067 Y193.534 E101.31197
G1 X190.323 Y195.002 E101.3667
G1 X189.629 Y196.011 E101.40744
G1 X188.536 Y197.104 E101.45885
G1 X187.341 Y197.945 E101.50745
G1 X185.947 Y198.605 E101.55875
G1 X184.678 Y198.928 E101.6023
G1 X183.203 Y199.091 E101.65166
G1 X116.479 Y199.07 E103.87091
G1 X115.156 Y198.895 E103.91529
G1 X114.033 Y198.597 E103.95394
G1 X112.591 Y197.886 E104.00741
G1 X111.487 Y197.127 E104.05197
G1 X110.375 Y196.015 E104.10428
G1 X109.543 Y194.781 E104.15378
G1 X108.922 Y193.507 E104.20092
G1 X108.515 Y192.011 E104.25248
G1 X108.408 Y190.773 E104.29381
G1 X108.424 Y109.084 E107.0108
G1 X108.517 Y108.027 E107.04609
G1 X108.933 Y106.466 E107.09982
G1 X109.677 Y104.998 E107.15456
G1 X110.371 Y103.989 E107.19529
G0 F6000 X110.681 Y104.245
G1 F1200 X111.724 Y103.202 E107.24435
G1 X112.858 Y102.404 E107.29047
G1 X114.189 Y101.774 E107.33945
G1 X115.421 Y101.46 E107.38174
G1 X116.84 Y101.307 E107.4292
G1 X183.47 Y101.327 E109.64533
G1 X184.741 Y101.492 E109.68796
G1 X185.829 Y101.781 E109.7254
G1 X187.182 Y102.444 E109.77551
G1 X188.257 Y103.183 E109.8189
G1 X189.315 Y104.241 E109.86866
G1 X190.146 Y105.461 E109.91776
G1 X190.701 Y106.636 E109.96098
G1 X191.089 Y108.055 E110.00991
G1 X191.193 Y109.261 E110.05017
G1 X191.178 Y190.881 E112.76486
G1 X191.088 Y191.904 E112.79902
G1 X190.692 Y193.389 E112.85014
G1 X189.993 Y194.775 E112.90177
G1 X189.319 Y195.755 E112.94133
G1 X188.276 Y196.798 E112.99039
G1 X187.142 Y197.596 E113.03651
G1 X185.811 Y198.226 E113.08548
G1 X184.579 Y198.54 E113.12777
G1 X183.16 Y198.693 E113.17524
G1 X116.53 Y198.673 E115.39136
G1 X115.259 Y198.508 E115.43399
G1 X114.171 Y198.219 E115.47143
G1 X112.818 Y197.556 E115.52155
G1 X111.743 Y196.817 E115.56493
G1 X110.685 Y195.759 E115.6147
G1 X109.903 Y194.606 E115.66104
G1 X109.298 Y193.364 E115.70699
G1 X108.911 Y191.943 E115.75597
G1 X108.807 Y190.739 E115.79616
G1 X108.822 Y109.119 E118.51086
G1 X108.912 Y108.096 E118.54501
G1 X109.308 Y106.611 E118.59613
G1 X110.007 Y105.225 E118.64776
G1 X110.681 Y104.245 E118.68732
G0 F6000 X110.991 Y104.501
G1 F1200 X111.984 Y103.508 E118.73403
G1 X113.057 Y102.753 E118.77766
G1 X114.325 Y102.153 E118.82432
G1 X115.52 Y101.848 E118.86534
G1 X116.882 Y101.705 E118.91089
G1 X183.42 Y101.724 E121.12395
G1 X184.638 Y101.879 E121.16479
G1 X185.689 Y102.158 E121.20096
G1 X186.955 Y102.774 E121.24779
G1 X188.001 Y103.493 E121.29
G1 X189.006 Y104.498 E121.33727
G1 X189.784 Y105.632 E121.38301
G1 X190.325 Y106.777 E121.42513
G1 X190.693 Y108.123 E121.47155
G1 X190.794 Y109.295 E121.51067
G1 X190.78 Y190.846 E124.22307
G1 X190.693 Y191.835 E124.25609
G1 X190.316 Y193.247 E124.3047
G1 X189.663 Y194.548 E124.35311
G1 X189.009 Y195.499 E124.3915
G1 X188.016 Y196.492 E124.43821
G1 X186.943 Y197.247 E124.48185
G1 X185.675 Y197.847 E124.5285
G1 X184.48 Y198.152 E124.56952
G1 X183.118 Y198.295 E124.61507
G1 X116.58 Y198.276 E126.82814
G1 X115.362 Y198.121 E126.86897
G1 X114.311 Y197.842 E126.90514
G1 X113.045 Y197.226 E126.95197
G1 X111.999 Y196.507 E126.99418
G1 X110.992 Y195.5 E127.04155
G1 X110.263 Y194.431 E127.08459
G1 X109.674 Y193.221 E127.12935
G1 X109.307 Y191.875 E127.17575
G1 X109.206 Y190.705 E127.21481
G1 X109.22 Y109.154 E129.9272
G1 X109.307 Y108.165 E129.96023
G1 X109.684 Y106.753 E130.00883
G1 X110.337 Y105.452 E130.05725
G1 X110.991 Y104.501 E130.09564
G0 F6000 X111.301 Y104.757
G1 F1200 X112.244 Y103.814 E130.13999
G1 X113.256 Y103.102 E130.18115
G1 X114.464 Y102.53 E130.2256
G1 X115.562 Y102.246 E130.26333
G1 X116.924 Y102.103 E130.30888
G1 X183.371 Y102.121 E132.51891
G1 X184.536 Y102.266 E132.55796
G1 X185.551 Y102.535 E132.59288
G1 X186.728 Y103.104 E132.63636
G1 X187.745 Y103.803 E132.67741
G1 X188.699 Y104.757 E132.72228
G1 X189.422 Y105.803 E132.76457
G1 X189.949 Y106.918 E132.80559
G1 X190.297 Y108.191 E132.84949
G1 X190.395 Y109.329 E132.88748
G1 X190.382 Y190.811 E135.59758
G1 X190.298 Y191.766 E135.62947
G1 X189.942 Y193.101 E135.67542
G1 X189.333 Y194.321 E135.72077
G1 X188.699 Y195.243 E135.75799
G1 X187.756 Y196.186 E135.80234
G1 X186.744 Y196.898 E135.8435
G1 X185.536 Y197.47 E135.88795
G1 X184.438 Y197.754 E135.92568
G1 X183.076 Y197.897 E135.97122
G1 X116.629 Y197.879 E138.18126
G1 X115.464 Y197.734 E138.22031
G1 X114.449 Y197.465 E138.25523
G1 X113.272 Y196.896 E138.29871
G1 X112.255 Y196.197 E138.33976
G1 X111.301 Y195.243 E138.38463
G1 X110.623 Y194.256 E138.42446
G1 X110.05 Y193.078 E138.46803
